static/mission.svg

<svg width="91" height="74" viewBox="0 0 91 74" fill="none" xmlns="http://www.w3.org/2000/svg">
<path d="M0 34.8409C0.19383 34.3985 0.102776 33.9181 0.136581 33.462C0.311056 31.1669 0.765236 28.9298 1.36908 26.7142C2.04217 24.2429 3.0026 21.887 4.18439 19.6218C5.32693 17.4341 6.68702 15.3889 8.24993 13.4784C10.6967 10.4911 13.5365 7.93718 16.7809 5.84485C19.0908 4.35555 21.5465 3.14976 24.1353 2.2016C26.6469 1.28097 29.2316 0.691303 31.8653 0.304187C32.8364 0.160245 33.8282 0.129714 34.8134 0.0705561C35.6697 0.0195767 36.5249 -0.022406 37.3798 0.0133068C39.3021 0.094274 41.215 0.241758 43.1179 0.583347C45.6347 1.03698 48.0686 1.73624 50.4376 2.68795C53.669 3.9886 56.6427 5.7358 59.374 7.89874C60.7526 8.99085 62.0669 10.1568 63.2667 11.44C64.5038 12.7622 65.6537 14.1613 66.7009 15.6413C66.8661 15.8736 66.832 15.9886 66.6016 16.1228C64.7607 17.1808 62.9232 18.2386 61.0937 19.3146C60.7943 19.491 60.6872 19.2892 60.5651 19.1216C59.5763 17.7549 58.4842 16.4783 57.2623 15.3199C55.3633 13.5198 53.2808 11.9695 50.9891 10.6933C48.6689 9.40195 46.2143 8.46497 43.644 7.8265C42.1607 7.45847 40.6559 7.21639 39.1281 7.10516C38.1287 7.03237 37.1318 6.91787 36.1307 6.96013C32.28 7.12233 28.5501 7.84095 24.9921 9.38287C22.1967 10.593 19.6379 12.1717 17.3368 14.1545C14.6872 16.4357 12.485 19.0987 10.7659 22.1446C9.04133 25.1979 7.9067 28.4742 7.33393 31.9288C7.01388 33.8767 6.84731 35.8518 6.95663 37.8293C7.15701 41.4832 7.9067 45.0122 9.35648 48.3919C10.4055 50.8334 11.7394 53.1019 13.3939 55.1667C15.7921 58.1622 18.6489 60.652 22.0026 62.5502C24.4534 63.9367 27.043 64.9716 29.7815 65.6218C31.2127 65.9606 32.6603 66.1986 34.1281 66.3093C35.0991 66.381 36.0675 66.4966 37.0407 66.4546C40.0158 66.3322 42.9385 65.9173 45.7852 64.9841C48.6078 64.0575 51.2296 62.7468 53.6638 61.0552C54.7033 60.3298 55.6722 59.5176 56.6219 58.6769C58.5027 57.0134 60.0809 55.0955 61.4633 53.0135C62.7307 51.1058 63.7533 49.0701 64.536 46.9124C65.126 45.275 65.5793 43.6091 65.8863 41.8976C66.0526 40.9721 66.1213 40.0356 66.2404 39.1063C66.3394 38.3277 66.3026 37.5469 66.3475 36.7708C66.4013 35.8084 66.2974 34.8322 66.2115 33.8663C66.0657 32.2421 65.7636 30.6432 65.3454 29.0666C64.9869 27.7112 64.5281 26.3933 63.9812 25.1058C63.864 24.8304 63.8995 24.6971 64.1683 24.545C65.9855 23.5101 67.7943 22.4611 69.599 21.4034C69.8548 21.2545 69.9398 21.2984 70.059 21.5615C71.217 24.1047 72.0657 26.7453 72.6047 29.4848C73.0024 31.4924 73.2088 33.5144 73.2873 35.5636C73.3399 37.0156 73.2889 38.4588 73.1856 39.8936C73.0253 42.0584 72.6341 44.1979 72.0594 46.2987C71.3321 48.9701 70.3384 51.5354 69.0301 53.9718C67.8205 56.222 66.4157 58.3405 64.75 60.2861C63.8755 61.3079 62.9905 62.3152 62.0127 63.238C60.1106 65.0308 58.0622 66.6318 55.8278 67.9998C53.5065 69.4226 51.066 70.5752 48.489 71.4522C46.0891 72.2671 43.6331 72.8292 41.1182 73.1313C40.504 73.2054 39.8934 73.3164 39.2803 73.4096C37.9188 73.4096 36.5552 73.4096 35.1937 73.4096C35.1029 73.3019 34.9778 73.3322 34.8633 73.3322C33.6826 73.3243 32.5074 73.2248 31.3485 73.038C28.8925 72.6458 26.4847 72.0694 24.1397 71.2159C21.5471 70.2704 19.0952 69.0611 16.7839 67.5718C13.5395 65.4803 10.6997 62.9256 8.2532 59.9375C6.68892 58.0286 5.32884 55.9812 4.1863 53.7951C3.00478 51.5289 2.04408 49.1724 1.37099 46.7022C0.767416 44.4855 0.313237 42.2504 0.13849 39.953C0.104686 39.4975 0.195738 39.0182 0.00190727 38.5744C-1.04832e-06 37.3299 0 36.0851 0 34.8409Z" fill="#1D4283"/>
<path d="M91 10.7584C89.9635 11.3475 88.9232 11.9295 87.8911 12.5249C85.7849 13.7392 83.6838 14.9589 81.5806 16.1766C81.1978 16.398 80.7764 16.5711 80.4402 16.8484C79.6911 17.4677 78.9125 17.4334 78.0532 17.1332C77.3337 16.8822 76.5805 16.7284 75.8518 16.5021C75.5637 16.4138 75.3464 16.4904 75.11 16.6278C71.8198 18.5299 68.5271 20.4265 65.2369 22.3288C61.4135 24.5424 57.5936 26.7645 53.7663 28.9765C51.2934 30.4061 48.8129 31.8194 46.3375 33.2476C43.7869 34.7208 41.236 36.1941 38.6982 37.6883C37.7561 38.2439 36.8101 38.1277 36.2542 37.3862C35.6828 36.6264 35.8363 35.5289 36.6473 35.0267C37.8117 34.3078 39.0079 33.641 40.1935 32.9556C43.0503 31.3041 45.9081 29.657 48.7638 28.0044C51.0333 26.6906 53.2947 25.3652 55.5667 24.0544C58.3345 22.4577 61.1117 20.8765 63.8796 19.2782C67.0943 17.4209 70.3024 15.5496 73.5196 13.6969C73.7666 13.5538 73.8677 13.3676 73.9331 13.1173C74.2213 12.0391 74.5263 10.9647 74.7971 9.88137C74.8527 9.66055 74.9674 9.55914 75.1386 9.461C77.5524 8.07256 79.964 6.68194 82.3774 5.2905C83.7386 4.50646 85.0976 3.71887 86.5299 2.89284C86.3683 3.87317 86.2271 4.77717 86.0697 5.67762C85.8855 6.71765 85.6897 7.75469 85.5022 8.79336C85.4547 9.04362 85.4798 9.22682 85.7971 9.30888C87.5332 9.75079 89.267 10.214 90.9998 10.6687C91 10.6992 91 10.7289 91 10.7584Z" fill="#1D4283"/>
<path d="M14.4136 37.0332C14.3852 32.9436 15.2805 29.425 17.049 26.135C18.4974 23.4405 20.4352 21.1491 22.8339 19.2406C25.5696 17.0648 28.6458 15.6311 32.056 14.9016C33.9365 14.4981 35.8481 14.3146 37.7662 14.4351C42.6365 14.7416 47.0014 16.3933 50.7967 19.4859C52.0219 20.4856 53.1197 21.6164 54.0995 22.8604C54.31 23.1273 54.3023 23.2548 53.9766 23.4397C51.9243 24.5986 49.8854 25.7798 47.8525 26.9712C47.5968 27.1203 47.4826 27.1129 47.2732 26.8891C44.9374 24.393 42.0714 22.8495 38.6956 22.3582C35.9454 21.9575 33.2634 22.3309 30.7229 23.5133C26.7443 25.3646 24.1128 28.4016 22.784 32.5729C22.2481 34.2514 22.0943 35.9879 22.2208 37.73C22.443 40.7797 23.5103 43.5176 25.478 45.8755C27.952 48.8481 31.1054 50.6234 34.9564 51.0816C38.8515 51.5448 42.3822 50.5533 45.4799 48.1614C48.4871 45.8392 50.2924 42.7679 50.929 39.0121C51.2869 36.9004 51.158 34.8228 50.5658 32.7702C50.5061 32.5628 50.4969 32.4584 50.7308 32.3259C52.8406 31.122 54.9394 29.8969 57.0367 28.6701C57.2747 28.5308 57.3646 28.548 57.4699 28.8282C58.0609 30.3734 58.4592 31.9606 58.6825 33.5998C58.8618 34.9174 58.972 36.2377 58.9063 37.5645C58.7741 40.3024 58.2138 42.9498 57.1261 45.4769C56.215 47.5911 55.0155 49.525 53.5221 51.2711C52.1345 52.8956 50.5198 54.2617 48.7279 55.4247C46.4019 56.9347 43.8832 57.9838 41.1731 58.5325C39.5017 58.8736 37.8019 59.0584 36.0869 58.9911C33.9747 58.9101 31.9069 58.5821 29.8895 57.9418C27.4507 57.1686 25.2122 56.0103 23.1848 54.4539C20.7705 52.6034 18.8052 50.3592 17.2933 47.7077C15.8732 45.2163 15 42.5536 14.5862 39.7321C14.4395 38.7247 14.3667 37.7101 14.4136 37.0332Z" fill="#1D4283"/>
<path d="M36.4103 29.318C38.045 29.2643 39.4192 29.7261 40.6779 30.5674C41.1291 30.8687 41.1111 30.8823 40.6607 31.1407C39.1068 32.0374 37.5283 32.8997 36.0197 33.8699C34.5416 34.8208 34.2419 36.6432 35.2155 38.0963C36.1227 39.4501 37.907 39.7908 39.3671 38.9185C40.7076 38.1178 42.0704 37.3569 43.4147 36.5625C43.7645 36.3551 43.8326 36.4508 43.8154 36.8117C43.7323 38.6663 43.0815 40.2753 41.7934 41.6245C40.2886 43.1942 38.4277 43.9491 36.283 43.8809C32.6103 43.764 29.6991 40.9476 29.3019 37.5183C29.1394 36.0988 29.3163 34.7466 29.9109 33.4754C30.7181 31.7563 32.0166 30.5072 33.7995 29.8052C34.6689 29.4628 35.5696 29.246 36.4103 29.318Z" fill="#1D4283"/>
</svg>

<svg width="91" height="74" fill="none" xmlns="http://www.w3.org/2000/svg"><path d="M0 34.84c.194-.442.103-.922.137-1.378.174-2.295.628-4.532 1.232-6.748.673-2.471 1.634-4.827 2.815-7.092a36.02 36.02 0 0 1 4.066-6.144 36.663 36.663 0 0 1 8.53-7.633 37.001 37.001 0 0 1 7.355-3.643c2.512-.921 5.097-1.51 7.73-1.898.971-.144 1.963-.174 2.948-.233.857-.051 1.712-.093 2.567-.058 1.922.081 3.835.229 5.738.57a37.316 37.316 0 0 1 7.32 2.105 35.971 35.971 0 0 1 8.936 5.21c1.379 1.093 2.693 2.259 3.893 3.542a39.799 39.799 0 0 1 3.434 4.201c.165.233.131.348-.1.482a634.494 634.494 0 0 0-5.507 3.192c-.3.176-.407-.026-.529-.193a27.104 27.104 0 0 0-3.303-3.802 31.056 31.056 0 0 0-6.273-4.627c-2.32-1.291-4.775-2.228-7.345-2.866a26.8 26.8 0 0 0-4.516-.722c-1-.073-1.996-.187-2.997-.145-3.851.162-7.58.881-11.139 2.423-2.795 1.21-5.354 2.789-7.655 4.772a29.844 29.844 0 0 0-6.571 7.99 29.61 29.61 0 0 0-3.432 9.784c-.32 1.948-.487 3.923-.377 5.9.2 3.654.95 7.183 2.4 10.563 1.049 2.441 2.382 4.71 4.037 6.775 2.398 2.995 5.255 5.485 8.609 7.383a29.642 29.642 0 0 0 7.779 3.072c1.43.339 2.878.577 4.346.687.971.072 1.94.188 2.913.146 2.975-.123 5.898-.538 8.744-1.47a30.275 30.275 0 0 0 7.879-3.93c1.04-.725 2.008-1.537 2.958-2.378 1.88-1.664 3.459-3.581 4.841-5.663a28.625 28.625 0 0 0 3.073-6.102 30.788 30.788 0 0 0 1.35-5.014c.167-.926.235-1.862.354-2.792.1-.778.063-1.56.108-2.335.053-.963-.05-1.939-.136-2.905a28.726 28.726 0 0 0-.867-4.8 29.25 29.25 0 0 0-1.364-3.96c-.117-.276-.081-.409.187-.561a504.747 504.747 0 0 0 5.431-3.142c.256-.148.34-.105.46.159a35.673 35.673 0 0 1 2.546 7.923c.397 2.007.604 4.03.682 6.079a40.046 40.046 0 0 1-.101 4.33 33.707 33.707 0 0 1-1.127 6.405c-.727 2.671-1.72 5.236-3.029 7.673-1.21 2.25-2.614 4.368-4.28 6.314-.874 1.022-1.76 2.03-2.737 2.952-1.902 1.793-3.95 3.394-6.185 4.762a36.346 36.346 0 0 1-14.71 5.132c-.614.073-1.225.184-1.838.278h-4.086c-.091-.108-.216-.078-.33-.078a23.06 23.06 0 0 1-3.515-.294c-2.457-.392-4.864-.969-7.21-1.822a36.809 36.809 0 0 1-7.355-3.644 36.623 36.623 0 0 1-8.53-7.635 35.938 35.938 0 0 1-4.068-6.142c-1.181-2.266-2.142-4.623-2.815-7.093C.767 44.486.313 42.25.138 39.953c-.033-.456.058-.935-.136-1.379C0 37.33 0 36.085 0 34.841z" fill="#1D4283"/><path d="M91 10.758c-1.037.59-2.077 1.172-3.109 1.767-2.106 1.214-4.207 2.434-6.31 3.652-.383.221-.805.394-1.14.671-.75.62-1.529.585-2.388.285-.72-.25-1.472-.405-2.201-.63-.288-.09-.506-.013-.742.125-3.29 1.902-6.583 3.799-9.873 5.7-3.823 2.214-7.643 4.437-11.47 6.649-2.474 1.43-4.954 2.842-7.43 4.27-2.55 1.474-5.101 2.947-7.639 4.441-.942.556-1.888.44-2.444-.302-.571-.76-.418-1.857.393-2.36 1.165-.718 2.36-1.385 3.547-2.07 2.856-1.652 5.714-3.299 8.57-4.952 2.27-1.313 4.53-2.639 6.803-3.95 2.767-1.596 5.545-3.177 8.313-4.776 3.214-1.857 6.422-3.728 9.64-5.581.247-.143.348-.33.413-.58.288-1.078.593-2.152.864-3.236.056-.22.17-.322.342-.42 2.413-1.388 4.825-2.78 7.238-4.17 1.362-.785 2.72-1.572 4.153-2.398-.162.98-.303 1.884-.46 2.785-.184 1.04-.38 2.077-.568 3.115-.047.25-.022.434.295.516 1.736.442 3.47.905 5.203 1.36v.09z" fill="#1D4283"/><path d="M14.414 37.033c-.029-4.09.867-7.608 2.635-10.898 1.448-2.695 3.386-4.986 5.785-6.894 2.736-2.176 5.812-3.61 9.222-4.34 1.88-.403 3.792-.586 5.71-.466 4.87.307 9.235 1.958 13.03 5.05 1.226 1 2.324 2.131 3.303 3.375.211.267.203.395-.122.58a440.183 440.183 0 0 0-6.124 3.531c-.256.15-.37.142-.58-.082-2.336-2.496-5.202-4.04-8.577-4.53-2.75-.402-5.433-.028-7.973 1.154-3.979 1.852-6.61 4.889-7.939 9.06-.536 1.678-.69 3.415-.563 5.157.222 3.05 1.29 5.788 3.257 8.146 2.474 2.972 5.627 4.747 9.478 5.206 3.895.463 7.426-.529 10.524-2.92 3.007-2.323 4.812-5.394 5.449-9.15.358-2.112.229-4.19-.363-6.242-.06-.207-.07-.312.165-.444a679.038 679.038 0 0 0 6.306-3.656c.238-.14.328-.122.433.158a21.36 21.36 0 0 1 1.212 4.772c.18 1.317.29 2.638.224 3.965-.132 2.737-.692 5.385-1.78 7.912a22.66 22.66 0 0 1-3.604 5.794c-1.387 1.625-3.002 2.99-4.794 4.154-2.326 1.51-4.845 2.559-7.555 3.108-1.671.34-3.371.525-5.086.458-2.112-.08-4.18-.409-6.198-1.05a21.687 21.687 0 0 1-6.704-3.487 22.388 22.388 0 0 1-5.892-6.746c-1.42-2.492-2.293-5.154-2.707-7.976-.146-1.007-.22-2.022-.172-2.699z" fill="#1D4283"/><path d="M36.41 29.318c1.635-.054 3.01.408 4.268 1.25.451.3.433.314-.017.573-1.554.896-3.133 1.759-4.641 2.729-1.478.95-1.778 2.773-.805 4.226.908 1.354 2.692 1.695 4.152.823 1.34-.801 2.703-1.562 4.048-2.356.35-.208.418-.112.4.249-.083 1.854-.733 3.463-2.022 4.813-1.504 1.57-3.365 2.324-5.51 2.256-3.673-.117-6.584-2.933-6.981-6.363-.163-1.42.014-2.771.609-4.043.807-1.719 2.106-2.968 3.889-3.67.869-.342 1.77-.559 2.61-.487z" fill="#1D4283"/></svg>
